Numix-GalliumOS/22/status/nm-signal-75-secure.svg

<?xml version="1.0" encoding="UTF-8" standalone="no"?>
<svg
   xmlns:dc="http://purl.org/dc/elements/1.1/"
   xmlns:cc="http://creativecommons.org/ns#"
   xmlns:rdf="http://www.w3.org/1999/02/22-rdf-syntax-ns#"
   xmlns:svg="http://www.w3.org/2000/svg"
   xmlns="http://www.w3.org/2000/svg"
   xmlns:sodipodi="http://sodipodi.sourceforge.net/DTD/sodipodi-0.dtd"
   xmlns:inkscape="http://www.inkscape.org/namespaces/inkscape"
   viewBox="0 0 22 22"
   id="svg3207"
   version="1.1"
   inkscape:version="0.91 r"
   width="100%"
   height="100%"
   sodipodi:docname="nm-signal-75-secure.svg">
  <metadata
     id="metadata3239">
    <rdf:RDF>
      <cc:Work
         rdf:about="">
        <dc:format>image/svg+xml</dc:format>
        <dc:type
           rdf:resource="http://purl.org/dc/dcmitype/StillImage" />
      </cc:Work>
    </rdf:RDF>
  </metadata>
  <defs
     id="defs3237" />
  <sodipodi:namedview
     pagecolor="#ffffff"
     bordercolor="#666666"
     borderopacity="1"
     objecttolerance="10"
     gridtolerance="10"
     guidetolerance="10"
     inkscape:pageopacity="0"
     inkscape:pageshadow="2"
     inkscape:window-width="1920"
     inkscape:window-height="1056"
     id="namedview3235"
     showgrid="false"
     inkscape:zoom="21.454545"
     inkscape:cx="-1.8999636"
     inkscape:cy="5.3455476"
     inkscape:window-x="0"
     inkscape:window-y="24"
     inkscape:window-maximized="1"
     inkscape:current-layer="svg3207" />
  <path
     style="fill:#ececec;fill-opacity:1"
     d="M 19,13 C 17.892,13 17,13.910763 17,15.03125 L 17,16 C 16.446,16 16,16.446 16,17 L 16,20 C 16,20.554 16.446,21 17,21 L 21,21 C 21.554,21 22,20.554 22,20 L 22,17 C 22,16.446 21.554,16 21,16 L 21,15.03125 C 21,13.910764 20.108,13 19,13 z M 19,14 C 19.554,14 20,14.442363 20,15 L 20,16 L 18,16 L 18,15 C 18,14.442363 18.446,14 19,14 z"
     id="path3233" />
  <path
     style="color:#000000;line-height:normal;opacity:0.4;fill:#ececec;fill-opacity:1"
     d="M 20.000002,6.12109 C 17.398628,4.14166 14.310101,3 11,3 7.689903,3 4.601371,4.14166 2,6.12109 L 11,19 Z"
     id="path18"
     inkscape:connector-curvature="0"
     sodipodi:nodetypes="csccc" />
  <path
     style="color:#000000;line-height:normal;opacity:1;fill:#ececec;fill-opacity:1"
     d="M 17.750001,9.34081 C 15.79897,7.85623 13.482574,7 10.999999,7 8.517427,7 6.201028,7.85623 4.249999,9.34081 l 6.75,9.65919 z"
     id="path18-5"
     inkscape:connector-curvature="0"
     sodipodi:nodetypes="csccc" />
</svg>

<svg xmlns="http://www.w3.org/2000/svg" viewBox="0 0 22 22">
 <path d="m 19 13 c -1.108 0 -2 0.911 -2 2.031 l 0 0.969 c -0.554 0 -1 0.446 -1 1 l 0 3 c 0 0.554 0.446 1 1 1 l 4 0 c 0.554 0 1 -0.446 1 -1 l 0 -3 c 0 -0.554 -0.446 -1 -1 -1 l 0 -0.969 c 0 -1.12 -0.892 -2.031 -2 -2.031 z m 0 1 c 0.554 0 1 0.442 1 1 l 0 1 l -2 0 l 0 -1 c 0 -0.558 0.446 -1 1 -1 z" style="fill:#ececec;fill-opacity:1"/>
 <path d="m 20 6.121 c -2.601 -1.979 -5.69 -3.121 -9 -3.121 -3.31 0 -6.399 1.142 -9 3.121 l 9 12.879" style="fill:#ececec;opacity:0.4;fill-opacity:1;color:#000"/>
 <path d="m 17.75 9.341 c -1.951 -1.485 -4.267 -2.341 -6.75 -2.341 -2.483 0 -4.799 0.856 -6.75 2.341 l 6.75 9.659 z" style="fill:#ececec;opacity:1;fill-opacity:1;color:#000"/>
</svg>
